X: 38758
T: Strop The Razor
R: jig
M: 6/8
K: Dmajor
Add fdd|ecA =c2A|Add fdd|faf gec|Add fdd|
ecA =c2d|=cBA c2d|eaa ged:|:Add {c}d2e|A=cc {B}c2d|Add{c}d2g|
faa gec|Add {c}d2e|A=cc {B}c2d|=cBA c2d|eaa ged:|

